X: 25004
T: Maid On The Green, The
R: jig
M: 6/8
K: Gmajor
d|:g(3ggg e2d|B(3eee dBA|BAG AGA|BAA A2G|
g(3ggg e2d|B(3eee dBA|BAG dBA|BGGG2:|
e|:gggaee|ggga2e|ggg egg|ffe d2e|
bbb aaa|ggg e2d|Bde dBA|BGGG:|

